X:557
T:Boite de Jazz
Z:Jack Campin, http://www.campin.me.uk/
F:Jack Campin's Nine-Note Tunebook
% last edit 03-02-2013
C:Christian Josue 
G:mazurka
M:9/8
L:1/8
Q:3/8=130
V:2 transpose -12
K:GMin
[V:1] D G2A|B3  A2G A2G |F2A D2D G2A|B3 A2B c2F|d3  z2
[V:2] z z3 |G3  G3  G3  |F3  F3  F3 |E3 E3  F3 |B3  z2
%
[V:1] c B2A|B3  A2G A2G |F2A D2D G2A|B3 A2G F2A|G3  z2:|
[V:2] z B3 |G3  G3  G3  |F3  F3  F3 |E3 E3  F3 |G3  z2:|
%
[V:1] D G2A|d3 ^c3  A2=c|B3  A3  G2A|B3 A2B c2F|d2c B2
[V:2] z z3 |D3  D3  D3  |G3  G3  G3 |E3 E3  F3 |B3  B2
%
[V:1] A B2c|d3 ^c3  A2=c|B3  A3  G2A|B3 A2G F2A|G3  z2:|
[V:2] z B3 |D3  D3   D3 |G3  G3  G3 |E3 E3  F3 |G3  z2:|

